svgs/light/hand-pointer.svg

<svg xmlns="http://www.w3.org/2000/svg" viewBox="0 0 448 512"><!--! Font Awesome Pro 6.0.0-alpha3 by @fontawesome - https://fontawesome.com License - https://fontawesome.com/license (Commercial License) --><path d="M387.4 210h-7.469c-10.75-18.33-30.41-30-51.97-30h-14.84c-5.781 0-11.5 .8594-17.03 2.547C284.9 171.4 269.8 165 253.7 165h-14.88c-4.625 0-9.219 .5469-13.69 1.609V61C225.2 27.36 197.1 0 164.6 0C131.1 0 103.1 27.36 103.1 61v211.6L102.4 270.5C95.35 261 80.31 247.5 56.75 247.5c-41.59 0-56.75 37.41-56.75 57.33c0 11.94 3.69 23.97 11.33 34.23l84.66 114C123.4 489.1 167.1 512 212.8 512h118.9c5.5 0 11.06-.9219 15.09-2.344c27.47-5.062 51.81-18.5 70.19-38.69C437 449.6 448 421.3 448 391.2V271C448 237.4 420.8 210 387.4 210zM416 391.2c0 21.89-7.939 42.44-22.53 58.03c-13.78 15.12-31.91 25.14-54.41 29.41C336.2 479.6 333.9 480 331.7 480H212.8c-35.66 0-69.72-17.22-91.16-46.03L37.02 319.1C33.62 315.4 31.98 310.1 31.98 304.8c0-8.385 6.573-25.28 24.85-25.28c10.27 0 16.79 5.934 19.84 10.06l30.47 41.02c3.078 4.139 7.897 6.469 12.85 6.469c11.1 0 15.1-10.83 15.1-16.02V61C135.1 45.02 148.8 32 164.6 32c15.78 0 28.6 13.02 28.6 29v131.7c0 6.908 5.418 15.98 16 15.98c11.97 0 12.7-11.65 29.69-11.65h14.88c24.02 0 21.02 21 37.61 21c8.19 0 10.4-6.004 21.83-6.004h14.84c12 0 22.78 7.844 26.81 19.5c2.325 6.68 10.37 10.5 17.57 10.5L387.4 242C403.2 242 416 255 416 271V391.2zM224.7 304c-8.844 0-16 7.156-16 16v96c0 8.844 7.156 16 16 16s16-7.156 16-16v-96C240.7 311.2 233.5 304 224.7 304zM287.1 304c-8.844 0-16 7.156-16 16l.002 96c0 8.844 7.156 16 16 16s15.1-7.156 15.1-16v-96C303.1 311.2 296.8 304 287.1 304zM352 304c-8.844 0-16 7.156-16 16v96c0 8.844 7.156 16 16 16s16-7.156 16-16v-96C368 311.2 360.8 304 352 304z"/></svg>

<svg xmlns="http://www.w3.org/2000/svg" viewBox="0 0 448 512"><!-- Font Awesome Pro 6.0.0-alpha2 by @fontawesome - https://fontawesome.com License - https://fontawesome.com/license (Commercial License) --><path d="M387.436 210H379.967C369.217 191.672 349.561 180 327.996 180H313.153C307.371 180 301.653 180.859 296.121 182.547C284.934 171.391 269.84 165 253.715 165H238.838C234.213 165 229.619 165.547 225.151 166.609V61C225.151 27.359 197.963 0 164.555 0C131.149 0 103.992 27.359 103.992 61V272.641L102.367 270.469C95.351 261.002 80.309 247.473 56.753 247.473C15.161 247.473 0 284.881 0 304.802C0 316.741 3.69 328.774 11.334 339.031L95.992 453.047C123.43 489.969 167.117 512 212.838 512H331.717C337.217 512 342.779 511.078 346.811 509.656C374.279 504.594 398.623 491.156 417 470.969C437 449.594 448 421.281 448 391.234V271C448 237.359 420.844 210 387.436 210ZM416 391.234C416 413.125 408.061 433.672 393.467 449.266C379.686 464.391 361.561 474.406 339.061 478.672C336.217 479.578 333.873 480 331.717 480H212.838C177.182 480 143.117 462.781 121.68 433.969L37.022 319.953C33.621 315.394 31.98 310.056 31.98 304.764C31.98 296.379 38.553 279.484 56.834 279.484C67.105 279.484 73.623 285.418 76.678 289.547L107.149 330.562C110.227 334.702 115.046 337.031 119.994 337.031C131.993 337.031 135.992 326.197 135.992 321.016V61C135.992 45.016 148.805 32 164.555 32C180.338 32 193.151 45.016 193.151 61V192.672C193.151 199.58 198.568 208.652 209.152 208.652C221.126 208.652 221.85 197 238.838 197H253.715C277.735 197 274.739 218.004 291.326 218.004C299.517 218.004 301.728 212 313.153 212H327.996C339.998 212 350.779 219.844 354.811 231.5C357.136 238.18 365.18 242.001 372.386 242.001C372.444 242.001 372.502 242.001 372.561 242H387.436C403.186 242 416 255.016 416 271V391.234ZM224.651 304C215.807 304 208.651 311.156 208.651 320V416C208.651 424.844 215.807 432 224.651 432S240.651 424.844 240.651 416V320C240.651 311.156 233.494 304 224.651 304ZM287.996 304C279.153 304 271.996 311.156 271.996 320V416C271.996 424.844 279.153 432 287.996 432S303.996 424.844 303.996 416V320C303.996 311.156 296.84 304 287.996 304ZM352 304C343.156 304 336 311.156 336 320V416C336 424.844 343.156 432 352 432S368 424.844 368 416V320C368 311.156 360.844 304 352 304Z"/></svg>
